X:1
T: Up On a Lofty Mountain
N:
C:
S:Play  3  times
A:
O:
R:
M:4/4
K:Em
I:speed 200
%W: A
% voice 1 (1 lines, 15 notes)
K:Em
M:4/4
L:1/16
E4 |B4 B4 c4 d4 |e8 B4 c4 |d4 d2 e2 c6 B2 |B12 E4 |
%W:
% voice 1 (1 lines, 14 notes)
B4 B4 c4 d4 |e8 B4 c4 |d4 d2 e2 c6 B2 |B12 B4 |
%W: B
% voice 1 (1 lines, 15 notes)
d6 G2 G4 B4 |A8 A4 D4 |E2 F2 G2 A2 F6 E2 |E12 B4 |
%W:
% voice 1 (1 lines, 14 notes)
d6 G2 G4 B4 |A8 A4 D4 |E2 F2 G2 A2 F6 E2 |E12 ||
